X: 27149
T: Miss McLeod's
R: reel
M: 4/4
K: Gmajor
G,B,DG c2 BG|DGBA BcBA|G,B,DG B2 AG|AFDF AdBA|
GABG dGEG|cGDG BGdG|c2 Bd cded|BddB AdBA:|
GBdb ageg|dBBA B2 AB|GBdb aged|eaga gedB|
GBdb ageg|dBBA B2 GB|edcB cded|BddB AdBA:|

